X:1
T: The Cliff Hornpipe
C:
R:Reel
Q: 232
K:D
M:4/4
L:1/8
|:FE|DF AF DG BG|AF dA fd AF|GB eg FA df|ed cB AG FE|
DF AF DG BG|AF dA fd AF|GB eg fe dc|e2 d2 d2 cd|
eA ^GA fA ^GA|ge fd eA ^GA|ge fd ec df|ed cB AG FE|
DF AF DG BG|AF dA fd AF|GB eg fe dc|e2 d2 d2:|
